X:1
T:Title
%%score { ( 1 4 ) | ( 2 3 ) }
L:1/8
M:6/8
K:G
V:1 treble nm="Grand Piano"
V:4 treble 
V:2 bass 
V:3 bass 
V:1
 z3 z2[Q:1/4=90] [G,B,D] | [G,B,D]2 [B,DG] [G,DG]2 A | B2 B B2 [DG] | GFG [FA]G[DFA] | %4
[M:5/8] [DGB]-[DGB]- [DGB]3 |[M:1/8] [G,B,D] |[M:3/4] [G,B,D]2 [B,DG] [G,DG]2 A | B2 B B2 [Ec] | %8
 BA [B,DG][CFA] G[A,DF] |[M:5/8] [B,DG]-[B,DG]- [B,DG]3 |[M:1/8] B |[M:3/4] d2 dB cd | [Fc]6 | %13
 [DAc]2 [DAc]F- [Fd][DAc] |[M:5/8] [GB]-[GB]- [GB]3 |[M:1/8] [B,D] | %16
[M:3/4] [G,CE]2 [A,CE] [A,DF]2 [A,DF] | [G,DG]2 A B2 [Ge] | dB [B,G] [DGB]2 [CFA] | %19
[M:5/8] [B,G]-[B,G]- [B,G]3 |] %20
V:2
 z3 z2 G,, | G,,2 G,, B,,2 [D,F,D] | [G,D]2 [G,D] [G,D]2 [B,,G,] | [D,D]-[D,A,D][D,B,D] z ED, | %4
[M:5/8] G,-G,- G,3 |[M:1/8] G,, |[M:3/4] G,,2 G,, B,,2 [D,F,D] | [G,D]2 [G,D] [G,D]2 [C,G,] | %8
 G,C .D,2 B,D, |[M:5/8] G,,-G,,- G,,3 |[M:1/8][K:treble] [G,DG] | %11
[M:3/4] [G,B,G]2 [G,B,G][K:bass]G, A,[G,,B,G] | [D,A,]2 D, D,2 D, | D,2 .D,2 A,F, | %14
[M:5/8] G,2 G, G,2 |[M:1/8] G,, |[M:3/4] C,2 A,, D,2 C, | B,,2 [D,F,D] [G,D]2 [C,G,] | %18
 B,D E, D,2 D, |[M:5/8] G,,-G,,- G,,3 |] %20
V:3
 x6 | x6 | x6 | .B,3 .[D,D]3 |[M:5/8] x5 |[M:1/8] x |[M:3/4] x6 | x6 | [D,D]2 z .D,3 |[M:5/8] x5 | %10
[M:1/8][K:treble] x |[M:3/4] z2 z[K:bass] .G,,3 | x6 | z2 z .D,3 |[M:5/8] x5 |[M:1/8] x | %16
[M:3/4] x6 | x6 | D,2 z2 z2 |[M:5/8] x5 |] %20
V:4
 x6 | x6 | x6 | x6 |[M:5/8] x5 |[M:1/8] x |[M:3/4] x6 | x6 | x6 |[M:5/8] x5 |[M:1/8] x | %11
[M:3/4] z2 z .D3 | z2 A, A,2 [DAc] | z2 z [DA] z2 |[M:5/8] D2 D D2 |[M:1/8] x |[M:3/4] x6 | x6 | %18
 G2 z2 z2 |[M:5/8] x5 |] %20

